!!!!SEGMENT: Bau1002a-Missa_En_douleur_en_tristesse-Kyrie.krn
!!!id: Bau1002a
!!!OTL: Kyrie
!!!AGN: Mass; Kyrie
!!!SCT: Lenaerts (1963)
!!!voices: 5
!!!COM: Noel Bauldeweyn
!!!OPR: Missa En douleur en tristesse
**kern	**kern	**kern	**kern	**kern
*part5	*part4	*part3	*part2	*part1
*staff5	*staff4	*staff3	*staff2	*staff1
*I"Bassus	*I"Tenor II	*I"Tenor I	*I"Altus	*I"Superius
*I'B	*I'T. II	*I'T. I	*I'A	*I'S
*clefF4	*clefGv2	*clefGv2	*clefGv2	*clefG2
*k[b-]	*k[b-]	*k[b-]	*k[b-]	*k[b-]
*M2/1	*M2/1	*M2/1	*M2/1	*M2/1
*met(C|)	*met(C|)	*met(C|)	*met(C|)	*met(C|)
!!section: Kyrie I
!!!OMD: Kyrie I
=1	=1	=1	=1	=1
!	!	!	!	!LO:TX:a:t=Canon&colon; superius/tenor at the octave
0r	1.G	0r	0r	0r
.	2B-y	.	.	.
=2	=2	=2	=2	=2
0r	2A	0r	1r	0r
.	2G	.	.	.
.	[1d	.	[1G	.
=3	=3	=3	=3	=3
0r	2d]	0r	2G]	0r
.	2d	.	2B-y	.
.	2c	.	2A	.
.	[2B-y	.	2G	.
=4	=4	=4	=4	=4
1.GG	4B-]	0r	1d	0r
.	4A	.	.	.
.	4G	.	.	.
.	4F	.	.	.
.	4E	.	2e	.
.	4D	.	.	.
2BB-y	2d	.	2d	.
=5	=5	=5	=5	=5
2AA	2c	0r	2e	0r
2GG	2B-y	.	1g	.
1D	1A	.	.	.
.	.	.	2f#i	.
=6	=6	=6	=6	=6
2.E	1.G	0r	2.g	1.g
4D	.	.	4f	.
2C	.	.	2e	.
2BB-y	2G	.	[2d	2b-y
=7	=7	=7	=7	=7
2FF	2F	0r	4d]	2a
.	.	.	4c	.
2C	2E	.	2c	2g
1GG	1D	.	2.B-y	1dd
.	.	.	4c	.
=8	=8	=8	=8	=8
2r	1.B-y	1.G	2d	0r
1G	.	.	2e	.
.	.	.	2.d	.
2G	2G	2B-y	.	.
.	.	.	4e	.
=9	=9	=9	=9	=9
2F	2A	2A	2f	1r
2E	2.B-y	2G	2g	.
2D	.	1d	2f	1dd
.	4A	.	.	.
2BB-y	[2G	.	2d	.
=10	=10	=10	=10	=10
1AA	2G]	0r	2e	1cc
.	2F#i	.	2f	.
2.GG	1G	.	[1B-y	2.b-y
4AA	.	.	.	4cc
=11	=11	=11	=11	=11
2BB-y	2.F	1r	2B-]	2dd
1F	.	.	2A	2.cc
.	4G	.	.	.
.	2A	1d	1d	.
.	.	.	.	4b-y
2D	2B-y	.	.	[2b-y
=12	=12	=12	=12	=12
2E	2c	1c	2g	4b-]
.	.	.	.	8aL
.	.	.	.	8gJ
2F	2F	.	2f	2a
[1G	2r	2.B-y	1d	1b-y
.	[2B-y	.	.	.
.	.	4c	.	.
=13	=13	=13	=13	=13
2G]	2B-]	2d	2r	0r
2F	2A	2.c	2f	.
2E	2G	.	2g	.
.	.	4B-y	.	.
2D	[2F	[2B-y	2d	.
=14	=14	=14	=14	=14
1C	2F]	4B-]	2e	1r
.	.	8AL	.	.
.	.	8GJ	.	.
.	2E	2A	2c	.
2BB-y	2F	1B-y	[1d	2r
2GG	[2B-y	.	.	[2g
=15	=15	=15	=15	=15
1G	2B-]	0r	2d]	2g]
.	2G	.	2B-y	2b-y
2F	2A	.	2c	2a
2E	[2B-y	.	[2g	2g
=16	=16	=16	=16	=16
1D	4B-]	1r	2g]	1dd
.	8AL	.	.	.
.	8GJ	.	.	.
.	2A	.	2f	.
[1G	2G	2r	2e	1r
.	[2B-y	[2G	[2d	.
=17	=17	=17	=17	=17
2G]	2B-]	2G]	4d]	0r
.	.	.	4c	.
2G	2G	2B-y	4d	.
.	.	.	4e	.
2F	2A	2A	2f	.
2E	[2B-y	2G	[2g	.
=18	=18	=18	=18	=18
1D	4B-]	1d	2g]	1dd
.	8AL	.	.	.
.	8GJ	.	.	.
.	2A	.	2f#i	.
[1GG	2.G	1r	1g	2.b-y
.	4A	.	.	4cc
=19	=19	=19	=19	=19
1GG]	2B-y	0r	2r	2dd
.	2G	.	2g	2dd
1r	1A	.	2e	1cc
.	.	.	2f	.
=20	=20	=20	=20	=20
1r	2.G	1d	1.g	1b-y
.	8FL	.	.	.
.	8EJ	.	.	.
2.GG	2D	2.B-y	.	1r
.	2E	.	2g	.
4AA	.	4c	.	.
=21	=21	=21	=21	=21
2BB-y	2D	2d	2f	0r
2GG	1G	2d	2g	.
1AA	.	1c	2e	.
.	2F#i	.	2f	.
=22	=22	=22	=22	=22
2GG	2.G	1B-y	2r	1.b-y
1G	.	.	2.d	.
.	4A	.	.	.
.	2B-y	1r	.	.
.	.	.	4e	.
2D	2A	.	4f	2dd
.	.	.	4g	.
=23	=23	=23	=23	=23
2F	0d	0r	2a	2cc
2G	.	.	1g	2b-y
1D	.	.	.	1a
.	.	.	2f#i	.
=24	=24	=24	=24	=24
0GG	2r	1.B-y	1g	2.g
.	1G	.	.	.
.	.	.	.	4a
.	.	.	1d	2b-y
.	2D	2d	.	[2a
=25	=25	=25	=25	=25
2r	2F	2c	1r	4a]
.	.	.	.	4g
2G	2G	2B-y	.	1g
1A	1D	1A	[1d	.
.	.	.	.	2f#i
=26	=26	=26	=26	=26
2.B-y	2.d	[0Gl	0d]	[0gl
4A	4c	.	.	.
2G	2B-y	.	.	.
2F	2A	.	.	.
=27	=27	=27	=27	=27
2E	2G	0G_	0c	0g_
2D	2F	.	.	.
1C	1E	.	.	.
=	=	=	=	=
00GG	00D	00G]	00B-y	00g]
=||	=||	=||	=||	=||
*M2/1	*M2/1	*M2/1	*M2/1	*M2/1
*met(C|)	*met(C|)	*met(C|)	*met(C|)	*met(C|)
!	!	!	!	!LO:TX:a:t=Canon&colon; superius/tenor at the octave
!!section: Christe
!!!OMD: Christe
0BB-y	0d	0r	1.B-y	0r
.	.	.	2A	.
=28	=28	=28	=28	=28
1C	1c	0r	1G	0r
1D	1A	.	1F	.
=29	=29	=29	=29	=29
2.BB-y	1B-y	0r	1.f	0dd
4C	.	.	.	.
4D	2.A	.	.	.
4E	.	.	.	.
2F	.	.	4e	.
.	8GL	.	4d	.
.	8FJ	.	.	.
=30	=30	=30	=30	=30
1C	1G	0r	1e	1cc
1D	1F	.	1f	1a
=31	=31	=31	=31	=31
1GG	1G	0d	2.B-y	1b-y
.	.	.	4c	.
1r	1D	.	4d	2a
.	.	.	4e	.
.	.	.	[2f	4g
.	.	.	.	4f
=32	=32	=32	=32	=32
1C	1r	1c	4f]	1g
.	.	.	8eL	.
.	.	.	8dJ	.
.	.	.	2e	.
1D	1F	1A	[1f	1f
=33	=33	=33	=33	=33
2.BB-y	2.D	1B-y	1f]	1r
4C	4E	.	.	.
2D	2F	2A	1d	1dd
2GG	2G	4G	.	.
.	.	4F	.	.
=34	=34	=34	=34	=34
1C	1C	1G	1e	1cc
2.D	2.F	1F	1f	2a
.	.	.	.	2b-y
4E	4G	.	.	.
=35	=35	=35	=35	=35
2F	2A	1r	1d	2a
2.G	2.G	.	.	2.b-y
.	.	1d	2g	.
4F	4A	.	.	4a
2D	[2B-y	.	2f	2f
=36	=36	=36	=36	=36
2E	4B-]	1c	1e	1g
.	4A	.	.	.
2C	2c	.	.	.
2D	2F	2A	[1d	1f
2BB-y	[2f	2B-y	.	.
=37	=37	=37	=37	=37
0D	4f]	2A	1d]	0r
.	4e	.	.	.
.	1d	2.B-y	.	.
.	.	.	2r	.
.	.	4A	.	.
.	4c	2F	2d	.
.	4B-y	.	.	.
=38	=38	=38	=38	=38
2C	2c	1G	2e	0r
2E	2G	.	2c	.
1D	2A	1F	2.f	.
.	2B-y	.	.	.
.	.	.	4g	.
=39	=39	=39	=39	=39
1C	1c	0r	2a	0r
.	.	.	2g	.
1D	1A	.	4f#i	.
.	.	.	4e	.
.	.	.	2f#i	.
=40	=40	=40	=40	=40
1GG	2G	0r	1.g	0dd
.	1B-y	.	.	.
1BB-y	.	.	.	.
.	4A	.	2f	.
.	4G	.	.	.
=41	=41	=41	=41	=41
1C	2A	0r	1e	1cc
.	1G	.	.	.
1D	.	.	1d	1a
.	2F#i	.	.	.
=42	=42	=42	=42	=42
1GG	1G	0d	2r	0b-y
.	.	.	1g	.
1BB-y	1D	.	.	.
.	.	.	2f	.
=43	=43	=43	=43	=43
1C	1E	1c	1e	1a
1D	1F	1A	1d	1f
=44	=44	=44	=44	=44
0GG	1D	0B-y	[0d	0g
.	1r	.	.	.
=45	=45	=45	=45	=45
0D	1.d	1A	0d]	0f
.	.	1F	.	.
.	2c	.	.	.
=46	=46	=46	=46	=46
1r	1B-y	0G	1.d	0b-y
1GG	1G	.	.	.
.	.	.	2e	.
=47	=47	=47	=47	=47
0D	0A	[0Fl	1.f	1.a
.	.	.	2d	2f
=48	=48	=48	=48	=48
1.BB-y	1.B-y	0F_	[0dl	[0fl
2C	2A	.	.	.
=	=	=	=	=
00D	00A	00F]	00d]	00f]
=||	=||	=||	=||	=||
*M2/1	*M2/1	*M2/1	*M2/1	*M2/1
*met(C|)	*met(CC|)	*met(C|)	*met(C|)	*met(C|)
!	!	!	!	!LO:TX:a:t=Canon&colon; superius/tenor at the octave
!!section: Kyrie II
!!!OMD: Kyrie II
0r	0r	0r	1d	0r
.	.	.	1e	.
=49	=49	=49	=49	=49
0r	0r	0r	2d	0r
.	.	.	1d	.
.	.	.	2c	.
=50	=50	=50	=50	=50
0r	1d	0r	2d	0r
.	.	.	2B-y	.
.	1e	.	1c	.
=51	=51	=51	=51	=51
0r	2d	0r	2d	0r
.	1d	.	1B-y	.
.	2c	.	4A	.
.	.	.	4G	.
=52	=52	=52	=52	=52
1D	1d	0r	1A	0r
1E	2B-y	.	2G	.
.	2c	.	2g	.
=53	=53	=53	=53	=53
2D	1d	0r	2f	0r
1D	.	.	2.a	.
.	2B-y	.	.	.
.	.	.	4d	.
2C	2c	.	[2g	.
=54	=54	=54	=54	=54
1D	1A	0r	2g]	0r
.	.	.	2f#i	.
2BB-y	2.G	.	1g	.
2C	.	.	.	.
.	4A	.	.	.
=55	=55	=55	=55	=55
1D	2B-y	0r	1f	0r
.	1A	.	.	.
2BB-y	.	.	2d	.
2C	[2G	.	[2e	.
=56	=56	=56	=56	=56
1AA	2G]	0r	2e]	0r
.	2F#i	.	4d	.
.	.	.	4c	.
1GG	1G	.	4B-y	.
.	.	.	4G	.
.	.	.	(2g	.
=57	=57	=57	=57	=57
1BB-y	1d	0r	2g)	1dd
.	.	.	2f	.
1C	2c	.	2e	1ee
.	2B-y	.	2g	.
=58	=58	=58	=58	=58
1D	0A	0r	2f	2dd
.	.	.	2d	1dd
1AA	.	.	1e	.
.	.	.	.	2cc#i
=59	=59	=59	=59	=59
0r	1.D	1d	1d	1dd
.	.	1e	2r	2b-y
.	2C	.	[2G	2cc
=60	=60	=60	=60	=60
0r	1G	2d	4G]	1dd
.	.	.	4A	.
.	.	1d	2B-y	.
.	2G	.	2B-y	2b-y
.	2A	2c	2F	2cc
=61	=61	=61	=61	=61
0r	2F	1d	2A	1a
.	2D	.	2F	.
.	1E	2B-y	1G	1g
.	.	2c	.	.
=62	=62	=62	=62	=62
2r	2D	1d	2A	0r
1G	1d	.	2.B-y	.
.	.	2B-y	.	.
.	.	.	4A	.
2A	[2c	2c	[2F	.
=63	=63	=63	=63	=63
2F	2c]	1A	4F]	0r
.	.	.	4D	.
2D	2F	.	1d	.
1E	2B-y	1G	.	.
.	2G	.	2c	.
=64	=64	=64	=64	=64
1.D	2.A	0r	1.d	1dd
.	4G	.	.	.
.	4F	.	.	1ff
.	4E	.	.	.
2BB-y	4D	.	2d	.
.	4C	.	.	.
=65	=65	=65	=65	=65
2C	2G	0r	2c	2ee
2D	2F	.	2B-y	1dd
1AA	1E	.	1A	.
.	.	.	.	2cc#i
=66	=66	=66	=66	=66
0D	4D	1d	1.F	1.dd
.	4E	.	.	.
.	4F	.	.	.
.	4G	.	.	.
.	2A	1f	.	.
.	2F	.	2D	2b-y
=67	=67	=67	=67	=67
2C	1.G	2e	4E	2cc
.	.	.	4D	.
2BB-y	.	1d	1B-y	2dd
2GG	.	.	.	2b-y
2AA	2E	2c	2A	2cc
=68	=68	=68	=68	=68
1D	1F	1.d	2F	1a
.	.	.	2f	.
2r	1G	.	2d	1g
2G	.	2B-y	2e	.
=69	=69	=69	=69	=69
2F	0r	2c	1f	2a
2D	.	2d	.	2.b-y
2.E	.	2B-y	1e	.
.	.	.	.	4a
.	.	2c	.	[2g
4C	.	.	.	.
=70	=70	=70	=70	=70
1D	2r	1A	1.d	2g]
.	2A	.	.	2f#i
2BB-y	2B-y	1G	.	1g
2C	2G	.	2e	.
=71	=71	=71	=71	=71
2AA	1F	2A	2f	0r
2D	.	2.B-y	1d	.
2BB-y	2D	.	.	.
.	.	4A	.	.
2C	2E	[2G	[2c	.
=72	=72	=72	=72	=72
1AA	1C	2G]	2c]	0r
.	.	2F#i	2A	.
[1GG	1D	1G	[1B-y	.
=73	=73	=73	=73	=73
1GG]	0d	0r	2B-]	1r
.	.	.	2G	.
1r	.	.	1G	1dd
=74	=74	=74	=74	=74
0r	1c	0r	2r	1ee
.	.	.	2.g	.
.	1B-y	.	.	2dd
.	.	.	4f	.
.	.	.	2d	[2dd
=75	=75	=75	=75	=75
1AA	1A	1r	1e	2dd]
.	.	.	.	2cc#i
1BB-y	1F	1d	[1d	1dd
=76	=76	=76	=76	=76
2GG	1.G	1e	2d]	2b-y
2AA	.	.	2c	2cc
1BB-y	.	2d	[1B-y	1dd
.	2F	[2d	.	.
=77	=77	=77	=77	=77
2GG	2G	2d]	2B-]	2b-y
2AA	2E	2c	4A	2cc
.	.	.	4G	.
2r	1D	1d	2F	1a
2D	.	.	2f	.
=78	=78	=78	=78	=78
2G	1r	2B-y	2e	2g
2F	.	2c	1f	2a
1D	1F	1d	.	2b-y
.	.	.	2d	[2a
=79	=79	=79	=79	=79
2E	1E-X	2B-y	2g	4a]
.	.	.	.	4g
2C	.	2c	2e	1g
1D	2D	1A	2f	.
.	2A	.	2d	2f#i
=80	=80	=80	=80	=80
2GG	2.B-y	[0Gl	2r	[0gl
2.G	.	.	1d	.
.	4A	.	.	.
.	4B-y	.	.	.
4F	4A	.	.	.
4E	4G	.	[2g	.
4D	4F	.	.	.
=81	=81	=81	=81	=81
2.C	2E	0G_	4g]	0g_
.	.	.	4f	.
.	4C	.	4e	.
4BB-y	4D	.	4d	.
1C	4E	.	1c	.
.	4F	.	.	.
.	[2G	.	.	.
=82	=82	=82	=82	=82
[0GGl	4G]	0G_	1.B-y	0g_
.	4F	.	.	.
.	4E	.	.	.
.	4D	.	.	.
.	1E	.	.	.
.	.	.	2c	.
=83	=83	=83	=83	=83
00GG]	00Dl	00G]	00dl	00g]
==	==	==	==	==
*-	*-	*-	*-	*-
!!!system-decoration: [*]
!!!RDF**kern: i = editorial accidental
!!!RDF**kern: l = terminal long
!!!ENC: Benjamin Ory
!!!END: 2021/2/19
!!!EED: Benjmain Ory
!!!EEV: 2022/2/22
!!!YEC: Copyright 2021 Benjamin Ory, All Rights Reserved
!!!ONB: Translated from MusicXML on 2021/04/22
